X: 1241
T: Kaçıncı Fasl-ı Bahar Bu
C: Cevdet Çağla
O: Turkey
F: http://compmusic.upf.edu/node/140
N: sultaniyegah--sarki--duyek--kacinci_fasl-i--cevdet_cagla
N: makam= sultaniyegah
N: form= sarki
N: usul= duyek = 8/4
M: 8/4
L: 1/16
K: C _B ^c  
Q: 1/4=132
%%MIDI tuningsystem comma53
A2 d4 e2 f2 g2 a4  | (3gab (3agf (3efg (3fed (3cde (3dcB A4  | 
w:  ARANAĞME  |   | 
c2 d4 ^f2 _7/8e3d c4  | d_7/8e dc B4 cd cB A4  | \
w:   |   | 
_7/8e2 d2 c2 B2 (3AB=c (3BAG F4  | 
w:   | 
z2 f2 e2 d2 =c2 B2 A2 G2  | A2 G2 F2 E2 D8  | \
w:   |   | 
A2 d4 d2 d2 c=B c2 d2  | 
w:  Ka çın cı  fasl_ *  *  ı  ba  | 
c2 d2 =B2 d2 d8  | e2 f4 ed d2 c=B ed dc  | \
w:  har  *  *  *  bu   |  so lar  gi *  der_ *  *  e *  me  | 
c4 c2 =B2 ed dc c2 (3_BAB  | 
w:  lim    | 
A2 d4 e2 f3e ed dc  | d2 f2 e2 d2 c2 B2 A2 G2  | \
w:  so lar  gi der_ *  e *  me  |  lim   SAZ  | 
AB GA Bc AB cd Bc d4  | 
w:   | 
A2 d4 d2 d2 c=B c2 d2  | c2 d2 =B2 d2 d8  | \
w:  Ka çın cı  fasl_ *  *  ı  ba  |  har  *  *  *  bu   | 
e2 f4 ed d2 c=B ed dc  | 
w:  so lar  gi *  der_ *  *  e *  me  | 
c4 c2 =B2 ed dc c2 (3_BAB  | A2 d4 e2 f3e ed dc  | \
w:  lim    |  so lar  gi der_ *  e *  me  | 
d2 f2 e2 d2 c2 B2 A2 G2  | 
w:  lim   SAZ  | 
AB GA Bc AB cd Bc d4  | c2 d4 ^f2 _7/8e3d c2 e2  | \
w:   |  Ta dıl ma dan  *  ni ce   | 
d2 _7/8e2 d2 c2 cB BA B4  | 
w:  yıl *  *  *  lar   | 
cd _7/8e4 dc B2 AG A2 BA  | A2 A4 G2 G2 AG FE F2  | \
w:  ge *  çer  bu *  dur  *  *  ha  |  lim    | 
G2 A2 z2 EF GG FE ED DC  | 
w:  ge çer  bu *  dur  *  *  *  ha  | 
D2 f2 e2 d2 c2 B2 A2 G2  | AB GA Bc AB cd Bc d4  | 
w:  lim   SAZ  |   | 
c2 d4 ^f2 _7/8e3d c2 e2  | d2 _7/8e2 d2 c2 cB BA B4  | \
w:  Ta dıl ma dan  *  ni ce   |  yıl *  *  *  lar   | 
cd _7/8e4 dc B2 AG A2 BA  | 
w:  ge *  çer  bu *  dur  *  *  ha  | 
A2 A4 G2 G2 AG FE F2  | G2 A2 z2 EF GG FE ED DC  | 
w:  lim    |  ge çer  bu *  dur  *  *  *  ha  | 
D2 f2 e2 d2 c2 B2 A2 G2  | ef de fg ef ga fg a4  | 
w:  lim   SAZ  |   | 
g2 a4 a2 a4 g2 a2  | b2 a2 g2 f2 e2 fe d4  | \
w:  Çi çek le rin  ba na   |  dal  *  *  *  dal   | 
=cd _7/8e4 dc c2 dc cB BA  | 
w:  u *  zan sa  *  değ *  *  mez_ *  e  | 
A6 B=c d2 e2 f4  | =c2 a4 gf e2 fe ed d^c  | \
w:  lim    |  u zan sa  *  değ *  *  mez_ *  e  | 
d2 f2 e2 d2 c2 B2 A2 G2  | 
w:  lim   SAZ  | 
AB GA Bc AB cd Bc d4  | c2 d4 ^f2 _7/8e3d c2 e2  | \
w:   |  Ta dıl ma dan  *  ni ce   | 
d2 _7/8e2 d2 c2 cB BA B4  | 
w:  yıl *  *  *  lar   | 
cd _7/8e4 dc B2 AG A2 BA  | A2 A4 G2 G2 AG FE F2  | \
w:  ge *  çer  bu *  dur  *  *  ha  |  lim    | 
G2 A2 z2 EF GG FE ED DC  | 
w:  ge çer  bu *  dur  *  *  *  ha  | 
D2 |
w:  lim    | 


